icon-themes/breeze_svg/cmd/sc_basicshapes.ring.svg

<svg viewBox="0 0 16 16" xmlns="http://www.w3.org/2000/svg">/&gt;<path d="m8 2c-3.3137072 0-6 2.6862997-6 6 0 3.3137 2.6862928 6 6 6 3.313707 0 6-2.6863 6-6 0-3.3137003-2.686293-6-6-6zm0 2c2.209139 0 4 1.790861 4 4s-1.790861 4-4 4-4-1.790861-4-4 1.790861-4 4-4z" fill="#4d4d4d"/></svg>

<svg xmlns="http://www.w3.org/2000/svg" viewBox="0 0 16 16">
     />
 <path 
     style="fill:#4d4d4d" 
     d="M 8 2 C 4.6862928 2 2 4.6862997 2 8 C 2 11.3137 4.6862928 14 8 14 C 11.313707 14 14 11.3137 14 8 C 14 4.6862997 11.313707 2 8 2 z M 8 4 C 10.209139 4 12 5.790861 12 8 C 12 10.209139 10.209139 12 8 12 C 5.790861 12 4 10.209139 4 8 C 4 5.790861 5.790861 4 8 4 z "
     />
 </svg>
